X: 14049
T: Fred Finn's
R: reel
M: 4/4
K: Dmajor
|:A3F ABde|fdec d2ed|BEE2 ~G3B|AFF2 dFAF|
~A3F ABde|fdec d2ed|BAGB ABde|fbeg fdd2:|
|:~f3 a agag|f2af fede|fbba ~b3a|fbba f ~e3|
~f3 a agag|f2af fedB|BAGB ABde|faef ~d3 e:|

